X:15
%%etbk:tnset id:6,pos:1,rep:3x,ant:
%%etbk:wsite http://www.thesession.org/tunes/display/2805
%%etbk:pldat 2016-09-15T18:43,2016-09-12T19:04,2016-09-10T16:11,2016-09-08T19:10,2016-09-07T15:17,2016-09-06T16:05,2016-08-05T17:11,2016-08-03T16:25,2016-08-02T17:45,2016-07-31T16:28,2016-07-28T18:56,2016-07-25T18:09,2016-07-23T16:50,2016-07-22T17:17,2015-03-27T18:38,2015-03-24T16:43,2014-12-30T17:55,2014-12-13T16:56,2014-11-19T16:35,2014-09-30T14:44,2014-09-13T13:50,2014-06-03T17:28,2014-05-06T17:07,2014-05-05T19:00,2014-04-28T18:00,2014-04-12T13:15,2014-04-02T16:49,2014-03-23T15:25,2014-03-18T17:42,2014-03-16T17:17,2014-03-15T17:15,2014-02-16T13:29,2013-12-28T15:34,2013-12-27T17:25,2013-12-11T17:00,2013-12-09T18:45,2013-12-07T17:59,2013-12-04T18:35,2013-12-03T19:05,2013-12-02T18:02,2013-11-26T15:32,2013-11-23T15:08,2013-10-05T16:34,2013-09-29T15:10,2013-09-27T17:23,2013-09-02T19:05,2013-09-01T16:50,2013-05-22T15:46
T: Lane To The Glen
T: Road To The Glen, The
Z: Piano Box Version by Martin Fleischmann
H: Created 2013-02-19 /  Last Modified 2013-02-19
M: 4/4
L: 1/8
R: Reel
K: Dmin
!1!F|: !1!F!5!d!4!c!3!B !2!A!1!G!1!F!2!A | !1!G2 !5!dG !2!AG!5!d!1!G | !1!F3!2!G !3!A!4!c!3!d!4!e | !5!fed!2!c !1!A=B!3!c!5!e |
!4!!1!d3 e !3!fga!4!g | !5!fed!2!c !1!A!3!F!1!DE | !3!FEF!4!G !3!AGFG |1 !3!A!5!dd!4!c !5!d3!1!F :|2 !3!A!5!d!3!d!2!c !3!d2 !1!de||
!3!f2 ag fedf | !2!e!1!c!2!cc !1!G!2!c!4!e!2!c | !3!f2 ag fdde | !3!fd!4!ec !1!A!3!d!1!de 
|1!3!f2fg !5!af!4!ge | !5!fedc !1!A!3!FDE | !3!FEFG !3!AGFG | !3!A!5!d!3!d!2!c !3!d2 !1!de :|
|2!3!f2!1!d!3!f dfdf | !2!ee!1!c!2!e cece | !5!af!4!ge !5!fedc | !1!ABc!5!e !4!d4   ||


